!!!COM: Corelli, Arcangelo
!!!OTL: 
!!!ONM: Opus 5, No. 4
!!!OMV: 2
!!!CDT: 1653/2/17/-1713/1/8/
!!!OCY: Italia
**kern	**kern	**kern
*clefC	*clefG	*clefG
*k[b-]	*k[b-]	*k[b-]
*F:	*F:	*F:
*M4/4	*M4/4	*M4/4
=1	=1	=1
1r	1r	8r
.	.	8cc
.	.	8cc
.	.	8cc
.	.	8ff
.	.	8ff
.	.	8ff
.	.	8ff
=2	=2	=2
1r	2r	8bb-
.	.	8bb-
.	.	8bb-
.	.	16aa
.	.	16gg
.	8r	8aa
.	8f	8a
.	8f	8a
.	8f	8a
=3	=3	=3
1r	8e	8cc
.	8e	8cc
.	8e	8cc
.	8e	8cc
.	8a	8ff
.	8a	8ff
.	4b	8ff
.	.	16ee
.	.	16dd
=4	=4	=4
1r	2r	8ee
.	.	8cc
.	.	4ccc
.	4.dd	8ccc
.	.	16bb-
.	.	16aa
.	.	8bb-
.	8dd	8bb-
=5	=5	=5
2r	8ee	4bb-
.	8cc	.
.	8ff	8aa
.	8a	8ff
8r	2c 2g	4ff
8C	.	.
8C	.	4ee
8C	.	.
=6	=6	=6
8F	4.a	4ff
8F	.	.
8F	.	2.r
8F	8cc	.
8B-	8dd	.
8B-	8dd	.
8B-	8dd	.
16A	16cc	.
16G	16b-	.
=7	=7	=7
4.A	8cc	1r
.	16dd	.
.	16ee	.
.	4.ff	.
16G	.	.
16F	.	.
8G	.	.
8F	16gg	.
.	16aa	.
8E	8bb-	.
8C	16aa	.
.	16gg	.
=8	=8	=8
4F	8aa	8r
.	8f	8a
4FF	8f	8a
.	8f	8a
8r	8e	8cc
8C	8e	8cc
8C	8e	8cc
8C	8e	8cc
=9	=9	=9
8D	8a	8ff
8C	8a	8ff
8BB	4dd	8ff
8GG	.	16ee
.	.	16dd
8C	8dd	4ee
8D	8g	.
8E	8cc	8r
8C	8r	8gg
=10	=10	=10
8F	1r	8aa
8G	.	8cc
8A	.	8ff
8F	.	8aa
8G	.	8b
8F	.	8gg
8E	.	8cc
8F	.	8aa
=11	=11	=11
8G	1r	4ee
8F	.	.
8G	.	4dd
8GG	.	.
4C	.	8cc
.	.	8c
4r	.	8c
.	.	8c
=12	=12	=12
1r	8r	8f
.	8A	8f
.	8A	8f
.	8A	8f
.	8d	8b-
.	8d	8b-
.	4e	8b-
.	.	16a
.	.	16g
=13	=13	=13
8r	1r	8a
8F	.	8f
8F	.	2ff
8F	.	.
8c	.	.
8c	.	.
8c	.	[4ee
8c	.	.
=14	=14	=14
8f	1r	4ee]
8f	.	.
8f	.	4.dd
16e	.	.
16d	.	.
4.e	.	.
.	.	16cc
.	.	16b
.	.	[4cc
16d	.	.
16c	.	.
=15	=15	=15
4.d	1r	8cc]
.	.	8f
.	.	4.b-
8e	.	.
8f	.	.
8c	.	16cc
.	.	16b-
8f	.	8a
8A	.	8cc
=16	=16	=16
8B-	4.r	8d
8c	.	8e
8d	.	8f
8A	8A	8f
8B-	2G	4f
8G	.	.
8c	.	4e
8C	.	.
=17	=17	=17
8F	4A	4f
8G	.	.
8A	2.r	8r
8AA	.	8cc
4BB-	.	8dd
.	.	8f
8r	.	8B-
8B-	.	8dd
=18	=18	=18
8c	1r	8ee
8E	.	8c
8F	.	8r
8AA	.	16ff
.	.	16cc
8BB-	.	8dd
8C	.	8cc
8D	.	8b-
8AA	.	8a
=19	=19	=19
8BB-	2r	2g
8GG	.	.
8C	.	.
8CC	.	.
2FF	2c	2a 2f
=20	=20	=20
2r	1r	16cc
.	.	16ff
.	.	16ee
.	.	16ff
.	.	16cc
.	.	16ff
.	.	16ee
.	.	16ff
4B-	.	16dd
.	.	16ff
.	.	16cc
.	.	16ff
8r	.	16dd
.	.	16ff
8A	.	16cc
.	.	16ff
=21	=21	=21
8B-	1r	16dd
.	.	16ff
8A	.	16cc
.	.	16ff
8B-	.	16dd
.	.	16ff
8A	.	16cc
.	.	16ff
4B-	.	16dd
.	.	16gg
.	.	16ff
.	.	16gg
4r	.	16dd
.	.	16gg
.	.	16ff
.	.	16gg
=22	=22	=22
4c	1r	16ee
.	.	16gg
.	.	16dd
.	.	16gg
8r	.	16ee
.	.	16gg
8B	.	16dd
.	.	16gg
8c	.	16ee
.	.	16gg
8B	.	16dd
.	.	16gg
8c	.	16ee
.	.	16gg
8B	.	16dd
.	.	16gg
=23	=23	=23
4c	1r	16ee
.	.	16aa
.	.	16gg
.	.	16aa
4r	.	16ee
.	.	16aa
.	.	16gg
.	.	16aa
4d	.	16ff
.	.	16aa
.	.	16ee
.	.	16aa
8r	.	16ff
.	.	16aa
8c#	.	16ee
.	.	16aa
=24	=24	=24
8d	1r	16ff
.	.	16aa
8c#	.	16ee
.	.	16aa
8d	.	16ff
.	.	16aa
8c#	.	16ee
.	.	16aa
4d	.	16ff
.	.	16bb-
.	.	16aa
.	.	16bb-
8r	.	16ff
.	.	16bb-
8d	.	16aa
.	.	16bb-
=25	=25	=25
8c	1r	16ee
.	.	16aa
8B-	.	16gg
.	.	16aa
8c	.	16ee
.	.	16aa
8A	.	16gg
.	.	16aa
4B-	.	16dd
.	.	16ff
.	.	16ee
.	.	16ff
8r	.	16gg
.	.	16ff
8G	.	16ee
.	.	16dd
=26	=26	=26
4A	16cc#	16ee
.	16dd	16ff
.	16cc#	16ee
.	16dd	16ff
4r	16ee	16gg
.	16dd	16ff
.	16ee	16gg
.	16dd	16ff
4AA	16cc#	16ee
.	16dd	16ff
.	16cc#	16ee
.	16dd	16ff
4r	16ee	16gg
.	16dd	16ff
.	16ee	16gg
.	16dd	16ff
=27	=27	=27
8A	8cc#	8ee
8D	8dd	8ff
8A	8dd	4a 4ee
8AA	8cc#	.
8r	2r	16dd
.	.	16ff
8D	.	16aa
.	.	16ff
8D	.	16dd
.	.	16ff
8D	.	16aa
.	.	16ff
=28	=28	=28
4G	1r	16b
.	.	16dd
.	.	16gg
.	.	16dd
4GG	.	16b
.	.	16dd
.	.	16gg
.	.	16b
8r	.	16cc
.	.	16ee
8C	.	16gg
.	.	16ee
8C	.	16cc
.	.	16ee
8C	.	16gg
.	.	16ee
=29	=29	=29
4F	1r	16ff
.	.	16aa
.	.	16ccc
.	.	16aa
4FF	.	16ff
.	.	16aa
.	.	16cc
.	.	16ff
8r	.	16dd
.	.	16ff
8BB-	.	16dd
.	.	16b-
8BB-	.	16dd
.	.	16ff
8BB-	.	16dd
.	.	16b-
=30	=30	=30
4AA	1r	16cc
.	.	16ff
.	.	16cc
.	.	16a
4D	.	16cc
.	.	16ff
.	.	16cc
.	.	16a
4GG	.	16b-
.	.	16dd
.	.	16b-
.	.	16g
4C	.	16e
.	.	16cc
.	.	16g
.	.	16b-
=31	=31	=31
4FF	1r	16a
.	.	16cc
.	.	16a
.	.	16f
8r	.	16a
.	.	16cc
8F	.	16ff
.	.	16a
4G	.	16b
.	.	16g
.	.	16b
.	.	16g
8r	.	16cc
.	.	16e
8E	.	16cc
.	.	16e
=32	=32	=32
8D	1r	16f
.	.	16b
8C	.	16cc
.	.	16e
8G	.	16d
.	.	16cc
8GG	.	16b-
.	.	16d
16C	.	8c
16E	.	.
16G	.	8cc
16E	.	.
16C	.	8cc
16E	.	.
16G	.	8cc
16E	.	.
=33	=33	=33
16F	4a	4ff
16A	.	.
16c	.	.
16A	.	.
16F	4.r	4f
16A	.	.
16c	.	.
16A	.	.
16BB-	.	8r
16D	.	.
16F	8dd	8ff
16D	.	.
16BB-	8dd	8ff
16D	.	.
16F	8dd	8ff
16D	.	.
=34	=34	=34
16G	4dd	4gg
16B	.	.
16d	.	.
16B	.	.
16G	4.r	4g
16B	.	.
16d	.	.
16B	.	.
16C	.	8r
16E	.	.
16G	8ee	8gg
16E	.	.
16C	8ee	8gg
16E	.	.
16G	8ee	8gg
16E	.	.
=35	=35	=35
16A	4ee	4aa
16c#	.	.
16e	.	.
16c#	.	.
16A	2.r	4a
16c#	.	.
16e	.	.
16c#	.	.
16D	.	8r
16F	.	.
16A	.	8ff
16F	.	.
16D	.	4bb-
16F	.	.
16E	.	.
16D	.	.
=36	=36	=36
16E	1r	8r
16G	.	.
16c	.	8gg
16G	.	.
16E	.	4ccc
16G	.	.
16c	.	.
16E	.	.
4F	.	8r
.	.	8f
4f	.	8f
.	.	8f
=37	=37	=37
2e	1r	8cc
.	.	8cc
.	.	8cc
.	.	8cc
2d	.	8ff
.	.	8ff
.	.	8ff
.	.	16ee
.	.	16dd
=38	=38	=38
4.c	2r	8ee
.	.	8cc
.	.	4ccc
8A	.	.
8B-	4dd	8ccc
8c	.	16bb-
.	.	16aa
8d	8r	8bb-
8e	8dd	8bb-
=39	=39	=39
8f	4cc	4bb-
8F	.	.
8A	8cc	8aa
8F	16b-	8aa
.	16a	.
8G	4b-	8aa
8F	.	16gg
.	.	16ff
8E	8r	8gg
8C	8b-	8gg
=40	=40	=40
8F	4a	4gg
8G	.	.
8A	8r	8r
8F	8a	8ff
8G	4g	4ff 4b
8B	.	.
8c	8r	8r
8E	8cc	8ee
=41	=41	=41
8F	4f	8a
8G	.	8b
8A	4e	2cc
8E	.	.
8F	2d	.
8D	.	.
8G	.	4b
8GG	.	.
=42	=42	=42
8C	4c	4cc
8D	.	.
8E	2.r	8r
8C	.	16ccc
.	.	16bb-
8F	.	16aa
.	.	16ccc
8F	.	16bb-
.	.	16ccc
8E	.	16gg
.	.	16ccc
8C	.	16bb-
.	.	16ccc
=43	=43	=43
8F	1r	16aa
.	.	16ccc
8G	.	16aa
.	.	16ccc
8A	.	16aa
.	.	16ccc
8F	.	16aa
.	.	16ccc
8E	.	16gg
.	.	16ccc
8D	.	16gg
.	.	16ccc
8E	.	16gg
.	.	16ccc
8C	.	16gg
.	.	16ccc
=44	=44	=44
8F	1r	16aa
.	.	16ccc
8G	.	16aa
.	.	16ccc
8A	.	16aa
.	.	16ccc
8G	.	16aa
.	.	16ccc
8F#	.	16aa
.	.	16ddd
8E	.	16aa
.	.	16ddd
8F#	.	16aa
.	.	16ddd
8D	.	16aa
.	.	16ddd
=45	=45	=45
8G	1r	16bb-
.	.	16ddd
8A	.	16bb-
.	.	16ddd
8B-	.	16bb-
.	.	16ddd
8G	.	16bb-
.	.	16ddd
8F#	.	16aa
.	.	16ddd
8E	.	16aa
.	.	16ddd
8F#	.	16aa
.	.	16ddd
8D	.	16aa
.	.	16ddd
=46	=46	=46
8G	2.r	16bb-
.	.	16ddd
8BB-	.	16ccc
.	.	16bb-
8C	.	16aa
.	.	16ddd
8GG	.	16ccc
.	.	16bb-
8D	.	16aa
.	.	16ddd
8GG	.	16ccc
.	.	16bb-
8D	4b-	4aa
8DD	.	.
=47	=47	=47
16G	4d 4G	4bb- 4gg
16F#	.	.
16G	.	.
16A	.	.
16B-	2.r	8r
16A	.	.
16B-	.	8bb- 8gg
16c	.	.
16d	.	4aa 4ff#
16D	.	.
16F#	.	.
16D	.	.
16F#	.	8r
16D	.	.
16F#	.	8ff# 8ddd
16D	.	.
=48	=48	=48
16G	1r	4bb- 4gg
16F#	.	.
16G	.	.
16A	.	.
16B-	.	8r
16A	.	.
16B-	.	8bb- 8gg
16c	.	.
16d	.	4ff# 4aa
16D	.	.
16F#	.	.
16D	.	.
16F#	.	8r
16D	.	.
16F#	.	8ff# 8ddd
16D	.	.
=49	=49	=49
16G	1r	4bb- 4gg
16F#	.	.
16G	.	.
16A	.	.
16B-	.	8r
16A	.	.
16B-	.	8gg 8bb-
16G	.	.
16c	.	4gg 4ee
16C	.	.
16E	.	.
16C	.	.
16E	.	8r
16C	.	.
16E	.	8ee 8ccc
16C	.	.
=50	=50	=50
16F	1r	4ff 4aa
16E	.	.
16F	.	.
16G	.	.
16A	.	8r
16G	.	.
16A	.	8ff 8aa
16F	.	.
16c	.	4gg 4ee
16C	.	.
16E	.	.
16C	.	.
16E	.	8r
16C	.	.
16E	.	8ee 8ccc
16C	.	.
=51	=51	=51
16F	1r	4ff 4aa
16E	.	.
16F	.	.
16G	.	.
16A	.	8r
16G	.	.
16A	.	8cc
16F	.	.
16B-	.	8dd
16A	.	.
16B-	.	8f
16c	.	.
16B-	.	8B-
16c	.	.
16A	.	8dd
16B-	.	.
=52	=52	=52
16c	1r	8ee
16B-	.	.
16c	.	8c
16d	.	.
16c	.	8r
16d	.	.
16B-	.	8ee
16c	.	.
16d	.	8ff
16c	.	.
16d	.	8a
16e	.	.
16d	.	8d
16e	.	.
16c	.	8ff
16d	.	.
=53	=53	=53
16e	1r	8gg
16d	.	.
16e	.	8e
16f	.	.
16e	.	8r
16f	.	.
16d	.	8gg
16e	.	.
2f	.	8aa
.	.	8f
.	.	8f
.	.	8f
=54	=54	=54
2e	1r	8cc
.	.	8cc
.	.	8cc
.	.	8cc
2d	.	8ff
.	.	8ff
.	.	8ff
.	.	16ee
.	.	16dd
=55	=55	=55
8c	2r	16ee
.	.	16ff
8C	.	16gg
.	.	16ff
8C	.	16ee
.	.	16gg
8C	.	16ff
.	.	16ee
8F	8r	8aa
8F	8a	8aa
8F	8a	8aa
8F	8a	8aa
=56	=56	=56
8B-	8dd	8aa
8B-	8dd	8gg
8B-	8dd	8gg
16A	8dd	8gg
16G	.	.
4.A	8cc	8gg
.	8a	8ff
.	8a	8ff
8d	8a	8ff
=57	=57	=57
4G	4g	8ff
.	.	16gg
.	.	16aa
4c	2r	8bb-
.	.	16aa
.	.	16gg
4.F	.	8aa
.	.	8cc
.	8r	8dd
8B-	8f	8dd
=58	=58	=58
8E	4e	4gg 4dd
16F	.	.
16G	.	.
8A	4e	4cc
8AA	.	.
4D	4d	4ff 4cc
8r	4d	4b-
8G	.	.
=59	=59	=59
8C	4c	4b- 4e
16D	.	.
16E	.	.
8F	4f	4a
8FF	.	.
4BB-	4B-	4b- 4d
[4B-	4d	4dd
=60	=60	=60
4B-]	4e	4cc
8r	4r	8r
8A	.	16ff
.	.	16cc
8BB-	8d	4dd
8C	8e	.
8D	4A	[4f
16AA	.	.
16BB-	.	.
=61	=61	=61
2C	4G	4f]
.	4B-	4e
2FF	2c	2f 2a
==	==	==
*-	*-	*-
!!!RWG: This file only contains pitch and duration data.
!!!RWG: Transposing instruments are not transposed.
!!!RWG: Durations of rests and tied notes may be interpreted.
!!!RWG: Key is interpreted using the Humdrum key tool.
!!!SCA: 
!!!YOR: 
!!!AGN: violin
!!!AFT: stage1
!!!ENC: F. Bennion
!!!END: 1997/04/15
!!!AST: baroque
!!!YEC: Copyright 1994, Center for Computer Assisted Research in the Humanities
!!!YEM: Rights to all derivative electronic formats reserved.
!!!YEM: Refer to licensing agreement for further details.
!!!YEN: United States of America
!!!EED: W.B. Hewlett
!!!KEY: 4119721563
!!!EMD: Converted from MuseData to Humdrum Aug 9, 1999, by Bret Aarden using muse2kern.
!!!VTS: 2397368516
